X: 8629
T: Crooked Step, The
R: polka
M: 2/4
K: Gmajor
[M:3/4][L:1/8]G/A/B/c/ dg fa|[M:2/4][L:1/16]g2d2 d4|
c2e2 d2B2|{Bc}B2A2 A4|[M:3/4][L:1/8]G/A/B/c/ dg fa|
[M:2/4][L:1/16]g2d2 d4|e2c2 A2F2|A2G2 G4|[M:3/4][L:1/8]G/A/B/c/ dg fa|[M:2/4][L:1/16]g2d2 d4|
c2e2 d2B2|{Bc}B2A2 A4|[M:3/4][L:1/8]G/A/B/c/ dg fa|
[M:2/4][L:1/16]g2d2 d4|e2c2 A2F2|A2G2 G4|
|:d2g2 g2fe|d2B2 B4|c2e2 d2B2|{Bc}B2A2 A4|
[M:3/4][L:1/8]G/A/B/c/ dg fa|[M:2/4][L:1/16]g2d2 d4|
e2c2 A2F2|1 A2G2 G4:|2 G4G4||

